!!!!SEGMENT: pl-wnifc--6020-n--001_elsner-jozef--polonez.krn
!!!cenid: 18xx:3906
!!!COM: Elsner, Józef
!!!COM-rismID: pe30000957
!!!CDT: 1769/06/01-1854/04/18
!!!CNT: Polish
!!!OTL: Polonez
!!!PDT:
!!!AGN:
!!!YEC: Copyright 2022 Narodowy Instytut Fryderyka Chopina (https://polishscores.org)
!!!YEM: License CC-BY-4.0 (https://creativecommons.org/licenses/by/4.0)
!!!SMS-siglum: PL-Wnifc
!!!SMS-shelfmark: 6020/n
!!!SMS-shelfwork: 001 W
!!!SMS-variant:
!!!SMS-altvar:
!!!NIFC-rismSourceID: 1001132996
!!!NIFC-rismChildID: 1001132998
!!!NIFC-islandoraID: nifc:212574
!!!URL-pdf-islandora: https://repozytorium.nifc.pl/islandora/object/nifc%3A212574/datastream/PDF/view
!!!URL-scan: https://polish.musicsources.pl/pl/lokalizacje/galeria/druki-muzyczne/16847 @EN{Scan on Polish Music Sources Website} @PL{Skany w portalu Dziedzictwo Muzyki Polskiej w otwartym dostępie}
!!!IIIF:
!!!ONB-nifc: UWAGA: s. 4-5
!!!AIN: 2 piano
!!!key: G
**kern	**dynam	**kern	**dynam
*part2	*	*part1	*
*staff2	*	*staff1	*
*I"[Piano]	*	*I"[Piano]	*
*I'pf	*	*I'pf	*
*ICklav	*	*ICklav	*
*Ipiano	*	*Ipiano	*
*clefF4	*	*clefG2	*
*k[f#]	*	*k[f#]	*
*G:	*	*G:	*
*M3/4	*	*M3/4	*
=1	=1	=1	=1
!LO:TX:t=P:problem: obiegniki przekreślone	!	!	!
8G\L 8B	.	4.dd\	pp
8d\J	.	.	.
*rep	*	*	*
8G\L 8B	.	.	.
.	.	8qee/	.
8d\J	.	16dd\LL	.
.	.	16cc#X\JJ	.
*Xrep	*	*	*
*rep	*	*	*
8G\L 8B	.	8dd\L	.
.	.	8qee/	.
8d\J	.	16dd\L	.
.	.	16cc#\JJ	.
*Xrep	*	*	*
=2	=2	=2	=2
8F#\L 8A	.	8.dd/L	.
8d\J	.	.	.
!	!	!LO:N:vis=8	!
.	.	16a/Jk	.
*rep	*	*	*
8F#\L 8A	.	4.a/	.
8d\J	.	.	.
*Xrep	*	*	*
8D\L 8F#	.	.	.
!	!	!LO:N:vis=16	!
8B\J	.	8b/	.
=3	=3	=3	=3
8E\L 8G	.	4.g/	.
8B\J	.	.	.
*rep	*	*	*
8E\L 8G	.	.	.
8B\J	.	8gS/	.
*Xrep	*	*	*
8F#\L 8d	.	8a/L 8cc	.
8G\J 8d	.	8g/J 8b	.
=4	=4	=4	=4
*^	*	*	*
8F#/L	8D\L	.	8aS/L	.
8G/J	8D\J	.	16b/L	.
.	.	.	16g/JJ	.
8F#/L	8D\L	.	8a/L	.
8G/J	8D\J	.	16b/L	.
.	.	.	16g/JJ	.
8F#/	8D\	.	16a/LL	.
.	.	.	16b/	.
8r	8ryy	.	16cc/	.
.	.	.	16cc#X/JJ	.
*v	*v	*	*	*
=5	=5	=5	=5
!	!	!	!LO:DY:b:t=FF
.	.	8qdd/	ff
16G\LL 16B	.	4.ddd\	.
16d\	.	.	.
16G\ 16B	.	.	.
16d\JJ	.	.	.
*rep	*	*	*
16G\LL 16B	.	.	.
16d\	.	.	.
.	.	8qeee/	.
16G\ 16B	.	16ddd\LL	.
16d\JJ	.	16ccc#X\JJ	.
*Xrep	*	*	*
*rep	*	*	*
16G\LL 16B	.	8ddd\L	.
16d\	.	.	.
.	.	8qeee/	.
16G\ 16B	.	16ddd\L	.
16d\JJ	.	16ccc#\JJ	.
*Xrep	*	*	*
=6	=6	=6	=6
16F#\LL 16A	.	4ddd\	.
16d\	.	.	.
16F#\ 16A	.	.	.
16d\JJ	.	.	.
*rep	*	*	*
16F#\LL 16A	.	4aa\	.
16d\	.	.	.
16F#\ 16A	.	.	.
16d\JJ	.	.	.
*Xrep	*	*	*
16G\LL 16B	.	4bb\	.
16d\	.	.	.
16G\ 16B	.	.	.
16d\JJ	.	.	.
=7	=7	=7	=7
16C\LL 16E	.	4aa\	.
16A\	.	.	.
16C\ 16E	.	.	.
16A\JJ	.	.	.
*rep	*	*	*
16C\LL 16E	.	8ee\L	.
16A\	.	.	.
16C\ 16E	.	(16ddd#X\L	.
16A\JJ	.	16eee\JJ	.
*Xrep	*	*	*
*rep	*	*	*
16C\LL 16E	.	16dddn\LL	.
16A\	.	16ccc\	.
16C\ 16E	.	16bb\	.
16A\JJ	.	16aa\JJ)	.
*Xrep	*	*	*
!!LO:LB:g=original	!	!
=8	=8	=8	=8
8D\L 8B	.	(16gg\LL	.
.	.	16ff#\	.
8D\J 8c	.	16aa\	.
.	.	16ff#\JJ)	.
*	*	*2\right	*
8r	.	2gg\	.
8D\ 8c	.	.	.
4G;\ 4B	.	.	.
=9:|!|:	=9:|!|:	=9:|!|:	=9:|!|:
8F#\L 8c	.	4aa\	.
8d\J	.	.	.
*rep	*	*	*
8F#\L 8c	.	(16gg#X\LL	.
.	.	16aa\	.
8d\J	.	16bb\	.
.	.	16aa\JJ	.
*Xrep	*	*	*
*rep	*	*	*
8F#\L 8c	.	16ggn\LL	.
.	.	16ff#\	.
8d\J	.	16ee\	.
.	.	16dd\JJ)	.
*Xrep	*	*	*
=10	=10	=10	=10
8G\L 8B	.	16dd\LL	.
.	.	16aa\	.
8d\J	.	16ff#\	.
.	.	16gg\JJ	.
*rep	*	*	*
8G\L 8B	.	4.gg\	.
8d\J	.	.	.
*Xrep	*	*	*
8D\L 8Fn	.	.	.
8B\J	.	8gg#X\	.
=11	=11	=11	=11
8C\L 8E	.	16gg#X\LL	.
.	.	16aa\	.
8A\J	.	16ddd#X\	.
.	.	16eee\JJ	.
8AA/L 8C	.	16dddn\LL	.
.	.	16ccc\	.
8E/J	.	16bb\	.
.	.	16aa\JJ	.
8AA#X/L 8C#X 8E	.	16ggn\LL	.
.	.	16ff#\	.
8G/J	.	16gg\	.
.	.	16ee\JJ	.
=12	=12	=12	=12
8BB\L 8F#	.	4dd#X\	.
8B\J	.	.	.
8BB/L	.	8r	.
8B\J	.	(16b/LL	.
.	.	16a#X/JJ	.
8BB/L	.	16b\LL	.
.	.	16cc#X\	.
8F#\J 8A	.	16dd#X\	.
.	.	16b\JJ)	.
=13	=13	=13	=13
8E/L 8G	.	4.ee\	.
*clefG2	*	*	*
8e/J 8g	.	.	.
*tremolo	*	*	*
!LO:TX:t=P:problem: tremolo / right	!	!	!
8e/L 8g	.	.	.
.	.	8qff#/	.
8e/ 8g	.	16ee\LL	.
.	.	16dd#X\JJ	.
8e/ 8g	.	8ee\L	.
.	.	8qff#/	.
8e/J 8g	.	16ee\L	.
.	.	16dd#X\JJ	.
=14	=14	=14	=14
8e/L 8g	.	8ee\L	.
.	.	8qddd/	.
8b/J	.	8eee\J	.
*rep	*	*	*
8e/L 8g	.	4bb\	.
8b/J	.	.	.
*xrep	*	*	*
*rep	*	*	*
8e/L 8g	.	8r	.
8b/J	.	16gg\LL	.
.	.	16bb\JJ	.
*xrep	*	*	*
!!LO:LB:g=original	!	!
=15	=15	=15	=15
8d#X/L 8f#	.	16bb\LL	.
.	.	16aa\JJ	.
8b/J	.	4aa\	.
*rep	*	*	*
8d#/L 8f#	.	.	.
8b/J	.	8ff#\	.
*Xrep	*	*	*
8f#/L 8a	.	8dd#X\L	.
8b/J	.	8bb\J	.
=16	=16	=16	=16
!	!	!LO:TX:b:i:t=Pol&colon; da ca po	!
8e/L 8g	.	8ee\L	.
8b/J	.	8gg\J	.
.	.	8qgg/	.
8B/L 8d#X 8a	.	16ff#\LL	.
.	.	16ee\	.
8B/J 8d# 8a	.	16ff#\	.
.	.	16gg\JJ	.
4e/ 4g	.	4ee\	.
=17||	=17||	=17||	=17||
*clefF4	*	*clefG2	*
*k[f#]	*	*k[f#]	*
*M3/4	*	*M3/4	*
!	!	!LO:TX:a:B:t=Trio	!
16G\LL	.	4.b\	.
16d\	.	.	.
16c#X\	.	.	.
16d\JJ	.	.	.
16e\LL	.	.	.
16d\	.	.	.
!	!	!	!LO:DY:b:t=F
16c#\	.	8b\	f
16d\JJ	.	.	.
8F#\L	.	16a\LL	.
.	.	16dd\	.
8d\J	.	16cc#X\	.
.	.	16dd\JJ	.
=18	=18	=18	=18
8E\L 8G	.	16r	.
.	.	16e/LL	.
8B\J	.	16g/	.
.	.	16b/JJ	.
*rep	*	*	*
8E\L 8G	.	16ee\LL	.
.	.	16b\	.
8B\J	.	16gg\	.
.	.	16ee\JJ	.
*Xrep	*	*	*
*rep	*	*	*
8E\L 8G	.	16bb\LL	.
.	.	16gg\	.
8B\J	.	16ee\	.
.	.	16b\JJ	.
*Xrep	*	*	*
=19	=19	=19	=19
16D#X\LL 16F#	.	4.aa\	.
16B\	.	.	.
16A#X\	.	.	.
16B\JJ	.	.	.
16c\LL	.	.	.
16B\	.	.	.
16A#\	.	8ff#\	.
16B\JJ	.	.	.
!!LO:LB:g=original	!	!
16F#\LL	.	8dd#X\L	.
16B\	.	.	.
16D#X\	.	16bb\L	.
16B\JJ	.	16aa\JJ	.
=20	=20	=20	=20
8E\L 8G	.	16gg\LL	.
.	.	16ff#\	.
8B\J	.	16gg\	.
.	.	16ee\JJ	.
8BB/L	.	4b\ 4dd#X 4bb	.
16BB/L	.	.	.
16AA#X/JJ	.	.	.
16BB/LL	.	4r	.
16C#X/	.	.	.
16D#X/	.	.	.
16BB/JJ	.	.	.
=21||	=21||	=21||	=21||
!	!	!	!LO:DY:b:t=FF
4EE/ 4E	.	8r	ff
.	.	16ee\LL 16gg#X 16eee	.
.	.	16ee\JJ 16gg# 16eee	.
8r	.	8ee\L 8gg# 8eee	.
*Xtremolo	*	*	*
8EE/L 8E	.	8ee'\J 8gg# 8eee	.
8GG#X/ 8G#X	.	8ee'\L 8bb 8eee	.
8EE/J 8E	.	8ee'\J 8gg# 8dddn	.
=22	=22	=22	=22
4AA/ 4A	.	8.ee\L 8.bb 8.ddd	.
.	.	16ee\Jk 16aa 16ccc	.
16r	.	4ee\ 4aa 4ccc	.
16AA/LL	.	.	.
16C/	.	.	.
16E/JJ	.	.	.
16A/LL	.	8r	.
16E/	.	.	.
16C/	.	8ee\ 8aa	.
16AA/JJ	.	.	.
=23	=23	=23	=23
!LO:TX:a:t=P:problem:mixed beam	!	!	!
16BB/LL	.	8dd#X\L 8ff#	.
16B\	.	.	.
16A#X\	.	8bb\J	.
16B\JJ	.	.	.
8D#X'\L 8F#	.	16r	.
.	.	16aa#X\LL	.
8B\J	.	16bb\	.
.	.	16aa#\JJ	.
8BB\L 8D#	.	16bb\LL	.
.	.	16aan\	.
8B\J	.	16gg\	.
.	.	16ff#\JJ	.
=24	=24	=24	=24
8E\L 8G	.	16ee\LL	.
.	.	16gg\	.
8B\J	.	16ff#\	.
.	.	16ee\JJ	.
8BB/L	.	16dd#X\LL	.
.	.	16ff#\	.
8A/J	.	16bb\	.
.	.	16dd#\JJ	.
4E\ 4G	.	4ee\	.
=25:|!|:	=25:|!|:	=25:|!|:	=25:|!|:
8G\L 8B	.	4.gg\	.
8d\J	.	.	.
*rep	*	*	*
8G\L 8B	.	.	.
8d\J	.	8ff#S\	.
*Xrep	*	*	*
*rep	*	*	*
8G\L 8B	.	8gg\L	.
8d\J	.	8gg#X\J	.
*Xrep	*	*	*
=26	=26	=26	=26
8F#\L 8cn	.	8aa\L	.
8d\J	.	16ddd\L	.
.	.	16ccc#X\JJ	.
*rep	*	*	*
8F#\L 8c	.	16ddd\LL	.
.	.	16aa\	.
8d\J	.	16ff#\	.
.	.	16dd\JJ	.
*Xrep	*	*	*
!!LO:LB:g=original	!	!
!	!	!LO:TUP:a:problem:klamra łukowa	!
!	!	!LO:TX:t=P:problem: sekstola podzielona na dwie grupy	!
8F#\L 8c	.	24cc#X\LL	.
.	.	24dd\	.
.	.	24ee\	.
8d\J	.	24ff#\	.
.	.	24gg\	.
.	.	24gg#X\JJ	.
=27	=27	=27	=27
8F#\L 8c	.	(16aa\LL	.
.	.	16ggn\)	.
8d\J	.	(16gg\	.
.	.	16ff#\JJ)	.
8A\L 8c	.	(16ff#\LL	.
.	.	16ee\)	.
8d\J	.	(16ee\	.
.	.	16dd\JJ)	.
*rep	*	*	*
8A\L 8c	.	(16dd\LL	.
.	.	16dd#X\	.
8d\J	.	16ee\	.
.	.	16cc\JJ)	.
*Xrep	*	*	*
=28	=28	=28	=28
8G\L	.	16cc\LL	.
.	.	16b\	.
8d\	.	16ee\	.
.	.	16dd\JJ	.
8B\	.	4.dd\	.
8d\	.	.	.
8B\	.	.	.
8G\J	.	8dd#X\	.
*clefG2	*	*	*
=29	=29	=29	=29
8r	.	8.ee\L	.
8c/ 8e	.	.	.
.	.	16cc\Jk	.
8c/L 8e	.	4a/	.
8c/J 8e	.	.	.
!	!	!LO:TUP:b:problem:klamra łukowa	!
!	!	!LO:TX:t=P:problem: sekstola podzielona na dwie grupy	!
8c/L 8e	.	24g#X/LL	.
.	.	24a/	.
.	.	24b/	.
8c/J 8e	.	24bn/	.
.	.	24cc/	.
.	.	24cc#X/JJ	.
=30	=30	=30	=30
8r	.	16dd\LL	.
.	.	16cc#X\	.
8B/ 8d	.	16dd\	.
.	.	16b\JJ	.
*tremolo	*	*	*
!LO:TX:t=P:problem: tremolo / right	!	!	!
8B/L 8d	.	4.g/	.
8B/ 8d	.	.	.
8B/ 8d	.	.	.
8B/J 8d	.	8b/	.
=31	=31	=31	=31
8r	.	8b/L	.
8c/ 8e	.	8a/J	.
!LO:TX:t=P:problem: tremolo / right	!	!	!
8c/L 8e	.	8r	.
8c/ 8e	.	(16dd#X\LL	.
.	.	16ee\JJ	.
8c/ 8e	.	16ddn\LL	.
.	.	16cc\	.
8c/J 8e	.	16b\	.
.	.	16a\JJ)	.
*clefF4	*	*	*
=32	=32	=32	=32
8d\L	pp	(16g/LL	.
.	.	16f#/	.
8D\J	.	16b/	.
.	.	16a/JJ	.
!	!	!LO:TX:b:i:t=dal Segno	!
8r	.	4a/)	.
8D\ 8F# 8c	.	.	.
!	!LO:DY:b:t=FF	!	!
8G\L 8B	ff	8g/	.
16B\L	.	8r	.
16G#X\JJ	.	.	.
==	==	==	==
*-	*-	*-	*-
!!!system-decoration: {(s1,s2)}
!!!ENC: Berenika Jozajtis
!!!END: 2022-07-26
!!!ENC: Jan Barakat
!!!END: 2022-08-22
